packages/core/src/svgs/tokens/mono/NAP.svg

<svg width="24" height="24" viewBox="0 0 24 24" fill="none" xmlns="http://www.w3.org/2000/svg">
<path fill-rule="evenodd" clip-rule="evenodd" d="M14.2177 18.7063C14.1632 18.7244 14.1085 18.7418 14.0534 18.7586C13.3937 18.9594 12.702 19.0644 11.9997 19.0647C10.1269 19.0655 8.33037 18.3221 7.00548 16.9984C5.68059 15.6746 4.93584 13.8788 4.93506 12.0058C4.93428 10.1329 5.67754 8.33642 7.00132 7.01153C7.82818 6.18399 8.83922 5.58278 9.93813 5.24783C10.6007 5.04584 11.2952 4.94063 12.0004 4.94092C12.9278 4.9413 13.8459 5.12435 14.7025 5.47959C15.5593 5.83483 16.3375 6.35533 16.9929 7.01134C17.6484 7.66736 18.1682 8.44606 18.5227 9.30296C18.8773 10.1598 19.0595 11.0782 19.0593 12.0056C19.0589 12.9329 18.8758 13.8512 18.5205 14.7078C18.1653 15.5644 17.6449 16.3428 16.9888 16.9981C16.3328 17.6537 15.554 18.1735 14.6972 18.528C14.5393 18.5933 14.3794 18.6528 14.2177 18.7063ZM10.4298 7.8821H7.88274V8.46445H8.15333L8.47098 8.80883V14.941C8.47098 14.941 8.47098 15.5291 7.88274 15.5291V16.1174H9.64743V15.5291C9.64743 15.5291 9.05921 15.4997 9.05921 14.941V9.44653L15.2121 16.1174H15.5298V9.05856C15.5298 9.05856 15.5298 8.47033 16.118 8.47033V7.8821H14.3533V8.47033C14.3533 8.47033 14.9416 8.47033 14.9416 9.05856V12.8414L10.4298 7.8821Z" fill="white"/>
<path fill-rule="evenodd" clip-rule="evenodd" d="M19.0711 4.92892C17.1957 3.05357 14.6522 2 12 2C9.34784 2 6.80429 3.05357 4.92892 4.92892C3.05357 6.80429 2 9.34785 2 12C2 14.6522 3.05357 17.1957 4.92892 19.071C6.80429 20.9464 9.34784 22 12 22C14.6522 22 17.1957 20.9464 19.0711 19.071C20.9464 17.1957 22 14.6522 22 12C22 9.34785 20.9464 6.80429 19.0711 4.92892ZM14.9272 4.93647C13.9993 4.55168 13.0046 4.35341 11.9999 4.35303C9.97098 4.35224 8.02491 5.15748 6.58972 6.59158C5.15451 8.02568 4.34778 9.97113 4.347 12C4.34622 14.0289 5.15145 15.9751 6.58555 17.4103C8.01965 18.8455 9.96521 19.6523 11.9941 19.6531C12.9987 19.6534 13.9935 19.4558 14.9218 19.0718C15.8501 18.6878 16.6936 18.1246 17.4043 17.4145C18.1149 16.7044 18.6787 15.8613 19.0636 14.9333C19.4483 14.0053 19.6466 13.0106 19.647 12.0059C19.6474 11.0014 19.4499 10.0065 19.0657 9.07822C18.6817 8.14992 18.1186 7.30638 17.4084 6.59574C16.6984 5.88511 15.8552 5.32128 14.9272 4.93647Z" fill="white"/>
</svg>

<svg xmlns="http://www.w3.org/2000/svg" width="24" height="24" fill="none" viewBox="0 0 24 24">
    <path fill="#fff" fill-rule="evenodd" d="m14.218 18.706-.165.053a7.063 7.063 0 1 1 .165-.053M10.43 7.882H7.883v.582h.27l.318.345v6.132s0 .588-.588.588v.588h1.764v-.588s-.588-.03-.588-.588V9.447l6.153 6.67h.318V9.06s0-.589.588-.589v-.588h-1.765v.588s.589 0 .589.589v3.782z" clip-rule="evenodd"/>
    <path fill="#fff" fill-rule="evenodd" d="M19.071 4.929A10 10 0 1 0 4.93 19.07 10 10 0 0 0 19.07 4.93m-4.144.007a7.65 7.65 0 1 0-5.86 14.133 7.65 7.65 0 0 0 5.86-14.133" clip-rule="evenodd"/>
</svg>
